X:1
T:Real Irish Topper, The
M:C
L:1/8
R:Air
N:Spirited
S:Joyce ? Old Irish Folk Music
Z:AK/Fiddler?s Companion
K:G
D|G>ABc d3e|=f3 e>e d3c|BABc
d<dcA|GAGF D2 dc|
B<BAG A2 GF|DGG>A
BABc|def<d dc A>F|G4G3||



